teeny/solid/text-document.svg

<svg width="15" height="15" viewBox="0 0 15 15" fill="none" xmlns="http://www.w3.org/2000/svg">
<path fill-rule="evenodd" clip-rule="evenodd" d="M1 1.5C1 0.671573 1.67157 0 2.5 0H10.7071L14 3.29289V13.5C14 14.3284 13.3284 15 12.5 15H2.5C1.67157 15 1 14.3284 1 13.5V1.5ZM4.00041 3.99707L9.00041 4.00035L8.99976 5.00035L3.99976 4.99707L4.00041 3.99707ZM11 6.99542H4V7.99542H11V6.99542ZM11.0006 10.0005L4.0006 9.99292L3.99951 10.9929L10.9995 11.0005L11.0006 10.0005Z" fill="black"/>
</svg>

<svg viewBox="0 0 15 15" xmlns="http://www.w3.org/2000/svg"><path fill-rule="evenodd" d="M1 1.5C1 .67 1.67 0 2.5 0h8.2l3.29 3.29v10.2c0 .82-.68 1.5-1.5 1.5h-10c-.83 0-1.5-.68-1.5-1.5v-12Zm3 2.49l5 0 -.01 1 -5-.01 0-1Zm6.99 2.99h-7v1h7v-1Zm0 3l-7-.01 -.01.99 6.99 0 0-1Z"/></svg>
